static/images/mobile/copyright/wikipedia-wordmark-mt.svg

<svg width="120" height="22" viewBox="0 0 120 22" fill="none" xmlns="http://www.w3.org/2000/svg">
<path fill-rule="evenodd" clip-rule="evenodd" d="M108.104 9.52712C107.999 9.7903 108.183 9.86925 108.762 9.86925H113.342L110.789 2.84234H110.736L108.104 9.52712ZM107.367 11.422L105.841 15.2381C105.578 15.8961 105.92 16.4751 106.894 16.554L107.657 16.6066C107.762 16.6066 107.867 16.6856 107.867 16.8172V17.3172L107.815 17.3699C107.815 17.3699 104.946 17.3172 104.314 17.3172C103.63 17.3172 101.946 17.3699 101.946 17.3699L101.893 17.3172V16.8172C101.893 16.6856 101.972 16.6066 102.104 16.6066C103.262 16.5277 103.92 16.3172 104.657 14.6328L110.499 0.947448C110.789 0.26318 110.999 0 111.394 0C111.762 0 111.894 0.263178 112.105 0.789537L117.5 15.0539C117.868 16.0803 118.395 16.4751 119.447 16.5803L119.737 16.6066C119.868 16.6066 120 16.6856 120 16.8172V17.3172L119.921 17.3699C119.921 17.3699 117.895 17.3172 116.868 17.3172C115.947 17.3172 113.368 17.3699 113.368 17.3699L113.342 17.3172V16.8172C113.342 16.6856 113.394 16.6066 113.526 16.6066L114.263 16.554C115.263 16.4751 115.631 16.1592 115.368 15.4223L113.763 10.9746H108.288C107.657 10.9746 107.499 11.0799 107.367 11.422ZM15.3705 3.42134C16.1601 1.8949 16.2917 1.3159 15.16 1.15799C15.0021 1.00008 15.0021 0.447403 15.16 0.289495C15.4915 0.298455 15.7681 0.307415 16.0127 0.315337C16.4864 0.330683 16.8399 0.342132 17.2391 0.342132C17.8444 0.342132 18.5023 0.315815 19.1603 0.289498L19.1603 0.289495C19.3182 0.447403 19.3182 1.00008 19.1603 1.15799C17.7918 1.36853 17.2128 2.39493 16.5548 3.60556L14.6336 7.29008L18.0023 14.238H18.1339L23.1343 3.42134C23.7396 2.00017 23.7133 1.28958 22.0027 1.15799C21.8448 1.00008 21.8448 0.447403 22.0027 0.289495C22.4238 0.298455 22.79 0.307415 23.1138 0.315337C23.741 0.330683 24.2089 0.342132 24.6081 0.342132C25.0256 0.342132 25.4682 0.329612 26.048 0.313207C26.3089 0.305827 26.5975 0.297661 26.9241 0.289495C27.082 0.447403 27.082 1.00008 26.9241 1.15799C25.3256 1.35175 24.9307 2.23649 24.4471 3.3199C24.4052 3.41374 24.3627 3.50906 24.3186 3.60556L18.1076 17.0277C17.9234 17.4225 17.7655 17.6331 17.476 17.6331C17.2128 17.6331 17.0022 17.4225 16.8707 17.0277L13.3177 9.39552L9.44898 17.0277C9.29107 17.4225 9.10685 17.6331 8.81735 17.6331C8.55417 17.6331 8.36994 17.4225 8.21203 17.0277L2.47471 3.55293C2.41777 3.41817 2.36466 3.29107 2.31457 3.17119C1.67005 1.62878 1.52435 1.28009 0.132408 1.15799C-0.0254996 1.00008 -0.051817 0.447403 0.106091 0.289495C0.518406 0.298268 0.842995 0.307041 1.13152 0.314839L1.13153 0.314839L1.13153 0.314839L1.13153 0.314839L1.13154 0.314839C1.70857 0.330435 2.14136 0.342132 2.84316 0.342132C3.5751 0.342132 4.11968 0.328748 4.82047 0.311524L4.82047 0.311524C5.1024 0.304596 5.4096 0.297045 5.76446 0.289495C5.92237 0.447403 5.92237 1.00008 5.76446 1.15799C4.10643 1.34221 4.02747 1.76331 4.68542 3.26343L9.50161 14.238H9.63321L12.5545 8.26385L10.3438 3.55293C9.4753 1.68435 9.26475 1.3159 8.13308 1.15799C7.97517 1.00008 7.94885 0.447403 8.10676 0.289495C8.29638 0.295421 8.46599 0.301346 8.627 0.306972C9.1811 0.326331 9.63337 0.342132 10.4491 0.342132C11.1964 0.342132 11.6228 0.328179 12.1652 0.310433C12.3677 0.303806 12.5864 0.296651 12.844 0.289495C13.0019 0.447403 13.0019 1.00008 12.844 1.15799C11.7386 1.3159 11.8439 1.76331 12.5545 3.26343L13.8441 5.92155L13.9757 6.05314L15.3705 3.42134ZM29.6719 5.97418C28.8561 6.05314 28.5666 6.26368 28.5666 6.79004V15.5539C28.5666 16.1329 28.8297 16.4751 29.6719 16.554L30.2246 16.6066C30.3035 16.6066 30.3825 16.6593 30.3825 16.7646V17.3172L30.3562 17.3699C30.3562 17.3699 28.356 17.3172 27.5402 17.3172C26.8033 17.3172 24.7504 17.3699 24.7504 17.3699L24.6978 17.3172V16.7646C24.6978 16.6593 24.7768 16.6066 24.882 16.6066L25.4084 16.554C26.2769 16.4751 26.5401 16.054 26.5401 15.5539V6.79004C26.5401 6.21104 26.2243 6.05314 25.4084 5.97418L24.882 5.92155C24.7768 5.92155 24.6978 5.89523 24.6978 5.81627V5.21096L24.7241 5.15833C24.7241 5.15833 26.8033 5.21096 27.6191 5.21096C28.3297 5.21096 30.3562 5.15833 30.3562 5.15833L30.3825 5.21096V5.78996C30.3825 5.86892 30.3299 5.92155 30.2246 5.92155L29.6719 5.97418ZM35.4297 11.6589C36.0087 11.6589 36.4298 11.7905 36.8246 12.3168L39.7459 15.9487C40.1143 16.3698 40.1406 16.6593 40.1406 17.0014V17.3172L40.167 17.3436C40.167 17.3436 41.1144 17.3172 41.7724 17.3172C42.5093 17.3172 43.9041 17.3436 43.9041 17.3436L43.9831 17.3172V16.7646C43.9831 16.6856 43.8778 16.633 43.7988 16.6066L43.6673 16.5803C43.1409 16.4751 42.5093 16.3172 42.1934 15.9487L38.2194 11.1588C38.0878 11.0009 37.9826 10.8693 37.9826 10.7114C37.9826 10.5009 38.1405 10.2114 38.5879 9.73766L40.8512 7.13218C41.7968 6.0553 42.5064 6.00072 43.5295 5.92202L43.5357 5.92155C43.6673 5.92155 43.7462 5.86892 43.7462 5.78996V5.18465L43.6673 5.15833C43.6673 5.15833 42.5093 5.21096 41.825 5.21096C41.0618 5.21096 38.93 5.15833 38.93 5.15833L38.9037 5.18465V5.78996C38.9037 5.86892 38.9563 5.89523 39.0616 5.92155C39.588 6.0005 39.8248 6.23736 39.8248 6.44791C39.8248 6.94795 39.009 7.92172 37.9562 9.07971C36.7983 10.3167 36.2982 10.7641 35.4297 10.7641V6.79004C35.4297 6.26368 35.7192 6.13209 36.5351 5.97418L36.8246 5.92155C36.9298 5.89523 36.9825 5.86892 36.9825 5.78996V5.21096L36.9562 5.15833C36.9562 5.15833 35.2981 5.21096 34.5612 5.21096C33.7454 5.21096 31.5873 5.15833 31.5873 5.15833L31.561 5.21096V5.81627C31.561 5.89523 31.6399 5.92155 31.7452 5.92155L32.2716 5.97418C33.1137 6.05314 33.4032 6.21104 33.4032 6.79004V15.5539C33.4032 16.054 33.0611 16.4751 32.2716 16.554L31.7452 16.6066C31.6399 16.6066 31.561 16.6593 31.561 16.7646V17.3172L31.6136 17.3699C31.6136 17.3699 33.7717 17.3172 34.5086 17.3172C35.2981 17.3172 36.9562 17.3699 36.9562 17.3699L36.9825 17.3172V16.7646C36.9825 16.6593 36.9035 16.633 36.8246 16.6066L36.5351 16.554C35.7719 16.4224 35.4297 16.1329 35.4297 15.5539V11.6589ZM49.8235 5.97418C49.0077 6.05314 48.7182 6.26368 48.7182 6.79004V15.5539C48.7182 16.1329 48.9814 16.4751 49.8235 16.554L50.3762 16.6066C50.4552 16.6066 50.5341 16.6593 50.5341 16.7646V17.3172L50.5078 17.3699C50.5078 17.3699 48.5076 17.3172 47.6918 17.3172C46.9549 17.3172 44.9021 17.3699 44.9021 17.3699L44.8494 17.3172V16.7646C44.8494 16.6593 44.9284 16.6066 45.0337 16.6066L45.56 16.554C46.4285 16.4751 46.6917 16.054 46.6917 15.5539V6.79004C46.6917 6.21104 46.3759 6.05314 45.56 5.97418L45.0337 5.92155C44.9284 5.92155 44.8494 5.89523 44.8494 5.81627V5.21096L44.8757 5.15833C44.8757 5.15833 46.9549 5.21096 47.7707 5.21096C48.4813 5.21096 50.5078 5.15833 50.5078 5.15833L50.5341 5.21096V5.78996C50.5341 5.86892 50.4815 5.92155 50.3762 5.92155L49.8235 5.97418ZM55.5287 6.84268C55.5287 6.15841 55.8445 5.92155 57.1078 5.92155C58.5553 5.92155 59.5817 6.42159 59.5817 8.68493C59.5817 10.7114 58.8184 11.6589 57.2394 11.6589C56.713 11.6589 56.0551 11.6326 55.5287 11.422V6.84268ZM53.5022 15.6855C53.5022 16.1856 53.239 16.4224 52.4232 16.5277L51.8705 16.6066C51.7652 16.633 51.7126 16.6593 51.7126 16.7646V17.3172L51.7389 17.3699C51.7389 17.3699 53.7128 17.3172 54.4497 17.3172C55.2655 17.3172 57.371 17.3699 57.371 17.3699L57.3973 17.3172V16.7646C57.3973 16.6593 57.3183 16.633 57.2131 16.6066L56.6867 16.5277C55.8445 16.3961 55.5287 16.2645 55.5287 15.6855V12.1589C56.0024 12.3695 56.5288 12.4221 57.1867 12.4221C60.9239 12.4221 61.6871 9.9482 61.6871 8.36912C61.6871 7.00059 61.0028 5.15833 57.2657 5.15833C56.745 5.15833 56.2017 5.17338 55.6962 5.18738L55.6961 5.18739L55.6961 5.18739C55.2563 5.19957 54.8451 5.21096 54.5023 5.21096C54.0584 5.21096 53.3473 5.19315 52.7524 5.17825L52.7523 5.17825C52.3244 5.16754 51.9567 5.15833 51.7915 5.15833L51.7389 5.18465V5.78996C51.7389 5.8426 51.7652 5.92155 51.9231 5.92155C53.1601 6.0005 53.5022 6.02682 53.5022 6.84268V15.6855ZM72.2677 17.3699C72.2677 17.3699 70.7149 17.3172 69.9254 17.3172H65.3197C64.5302 17.3172 62.7143 17.3699 62.7143 17.3699L62.6879 17.3172V16.7382C62.6879 16.6856 62.7143 16.6066 62.8459 16.6066L63.4512 16.554C64.267 16.4751 64.5039 15.9487 64.5039 15.4223V6.73741C64.5039 6.1321 64.1881 6.02682 63.4512 5.97418L62.8459 5.92155C62.6879 5.89523 62.6879 5.84259 62.6879 5.81627V5.21096L62.7143 5.15833C62.7143 5.15833 64.7671 5.21096 65.5566 5.21096H69.4254C70.2149 5.21096 72.0835 5.15833 72.0835 5.15833L72.1361 5.21096C72.1624 6.34264 72.3466 7.36904 72.5309 8.36912L71.8729 8.47439C71.5834 7.50063 71.0834 6.10577 69.399 6.10577H67.2936C66.7935 6.10577 66.5304 6.29 66.5304 6.73741V10.5535H68.5042C69.2411 10.5535 69.4254 10.2377 69.5306 9.71134L69.6885 9.15866C69.6885 9.07971 69.7412 9.02707 69.8464 9.02707H70.2938C70.3465 9.02707 70.3465 9.05339 70.3465 9.10602C70.332 9.26521 70.3136 9.43634 70.2944 9.61393C70.2439 10.0823 70.1886 10.5956 70.1886 11.0536C70.1886 11.4922 70.2354 11.884 70.2822 12.2759C70.3055 12.4718 70.3289 12.6677 70.3465 12.8695L70.2938 12.9221H69.8464C69.7149 12.9221 69.6622 12.8695 69.6622 12.7905L69.5306 12.2115C69.4254 11.6852 69.1885 11.3957 68.5042 11.3957H66.5304V15.4223C66.5304 15.9224 66.8199 16.4224 67.2936 16.4224H69.7938C71.136 16.4224 71.8729 15.5802 72.1887 14.2117L72.8467 14.2907L72.3203 17.3172L72.2677 17.3699ZM74.1259 16.7646V17.3172L74.1522 17.3699C74.1522 17.3699 76.1524 17.3172 76.9419 17.3172C77.255 17.3172 77.5835 17.325 77.9884 17.3345C78.6389 17.3499 79.4867 17.3699 80.7844 17.3699C83.7057 17.3699 86.9691 16.0013 86.9691 11.3957C86.9691 7.8954 84.811 5.15833 80.4159 5.15833C80.047 5.15833 79.2115 5.17363 78.4413 5.18773C77.783 5.19978 77.1724 5.21096 76.9419 5.21096C76.4682 5.21096 74.1522 5.15833 74.1522 5.15833L74.1259 5.21096V5.78996C74.1259 5.86892 74.2049 5.92155 74.3101 5.92155L74.8891 5.97418L74.9499 5.97969C75.7663 6.05352 75.9419 6.0694 75.9419 6.73741V15.4223C75.9419 16.2382 75.6787 16.4751 74.8891 16.554L74.2838 16.6066C74.1786 16.6066 74.1259 16.6856 74.1259 16.7646ZM77.9683 15.4223V6.73741C77.9683 6.07946 78.6263 5.92155 79.6527 5.92155C84.0741 5.92155 84.6794 9.10603 84.6794 11.8431C84.6794 15.5276 83.0477 16.6066 80.1527 16.6066C78.1526 16.6066 77.9683 16.1592 77.9683 15.4223ZM93.3651 5.97418C92.5493 6.05314 92.2598 6.26368 92.2598 6.79004V15.5539C92.2598 16.1329 92.5229 16.4751 93.3651 16.554L93.9178 16.6066C93.9967 16.6066 94.0757 16.6593 94.0757 16.7646V17.3172L94.0494 17.3699C94.0494 17.3699 92.0492 17.3172 91.2334 17.3172C90.4965 17.3172 88.4436 17.3699 88.4436 17.3699L88.391 17.3172V16.7646C88.391 16.6593 88.47 16.6066 88.5752 16.6066L89.1016 16.554C89.9701 16.4751 90.2333 16.054 90.2333 15.5539V6.79004C90.2333 6.21104 89.9175 6.05314 89.1016 5.97418L88.5752 5.92155C88.47 5.92155 88.391 5.89523 88.391 5.81627V5.21096L88.4173 5.15833C88.4173 5.15833 90.4965 5.21096 91.3123 5.21096C92.0229 5.21096 94.0494 5.15833 94.0494 5.15833L94.0757 5.21096V5.78996C94.0757 5.86892 94.0231 5.92155 93.9178 5.92155L93.3651 5.97418ZM99.8598 14.7907V6.76372C99.8598 6.23736 100.176 6.10577 100.992 5.97418L101.334 5.92155C101.439 5.89523 101.518 5.86892 101.518 5.78996V5.21096L101.465 5.15833C101.465 5.15833 99.623 5.21096 98.8861 5.21096C98.0965 5.21096 95.8332 5.15833 95.8332 5.15833L95.8069 5.21096V5.78996C95.8069 5.86892 95.8858 5.92155 95.9648 5.92155L96.7017 5.97418C97.5175 6.02682 97.8334 6.18472 97.8334 6.76372V15.3434C97.8334 20.0806 96.9122 20.8175 96.0964 20.8175C95.7542 20.8175 95.5963 20.6333 95.4121 20.3701C95.1752 20.0543 94.8857 19.7122 94.1488 19.7122C93.8067 19.7122 93.2014 20.0543 93.2014 20.607C93.2014 21.4755 94.2278 21.9229 94.7805 21.9229C95.3858 21.9229 96.4648 21.8966 97.5702 20.9754C98.9913 19.8438 99.8598 18.1068 99.8598 14.7907Z" fill="black"/>
</svg>

<svg xmlns="http://www.w3.org/2000/svg" width="120" height="22" fill="none"><path fill="#000" fill-rule="evenodd" d="M108.104 9.527c-.105.263.079.342.658.342h4.58l-2.553-7.027h-.053l-2.632 6.685Zm-.737 1.895-1.526 3.816c-.263.658.079 1.237 1.053 1.316l.763.053c.105 0 .21.079.21.21v.5l-.052.053s-2.869-.053-3.501-.053c-.684 0-2.368.053-2.368.053l-.053-.053v-.5c0-.131.079-.21.211-.21 1.158-.08 1.816-.29 2.553-1.974L110.499.947c.29-.684.5-.947.895-.947.368 0 .5.263.711.79l5.395 14.264c.368 1.026.895 1.421 1.947 1.526l.29.027c.131 0 .263.079.263.21v.5l-.079.053s-2.026-.053-3.053-.053c-.921 0-3.5.053-3.5.053l-.026-.053v-.5c0-.131.052-.21.184-.21l.737-.053c1-.079 1.368-.395 1.105-1.132l-1.605-4.447h-5.475c-.631 0-.789.105-.921.447Zm-91.996-8c.79-1.527.92-2.106-.211-2.264-.158-.158-.158-.71 0-.869l.853.026c.473.016.827.027 1.226.027.605 0 1.263-.026 1.921-.053.158.158.158.711 0 .869-1.368.21-1.947 1.237-2.605 2.448L14.634 7.29l3.368 6.948h.132l5-10.817c.606-1.42.58-2.131-1.131-2.263-.158-.158-.158-.71 0-.869l1.11.026c.628.016 1.096.027 1.495.027.418 0 .86-.012 1.44-.029l.876-.024c.158.158.158.711 0 .869-1.598.194-1.993 1.078-2.477 2.162l-.128.286-6.211 13.422c-.185.395-.343.605-.632.605-.263 0-.474-.21-.605-.605l-3.553-7.632-3.869 7.632c-.158.395-.342.605-.632.605-.263 0-.447-.21-.605-.605L2.475 3.553l-.16-.382C1.67 1.63 1.525 1.281.132 1.158-.025 1-.052.448.106.289l1.026.026c.577.015 1.01.027 1.711.027.732 0 1.277-.013 1.977-.03l.944-.023c.158.158.158.711 0 .869-1.658.184-1.737.605-1.079 2.105l4.817 10.975h.131l2.922-5.974-2.211-4.711c-.869-1.869-1.08-2.237-2.21-2.395C7.974 1 7.948.448 8.106.289l.52.018c.554.02 1.006.035 1.822.035.747 0 1.174-.014 1.716-.032l.679-.02c.158.157.158.71 0 .868-1.105.158-1 .605-.29 2.105l1.29 2.659.132.131 1.394-2.632Zm14.3 2.552c-.815.08-1.104.29-1.104.816v8.764c0 .579.263.921 1.105 1l.553.053c.078 0 .157.052.157.158v.552l-.026.053s-2-.053-2.816-.053c-.737 0-2.79.053-2.79.053l-.052-.053v-.552c0-.106.079-.158.184-.158l.526-.053c.869-.079 1.132-.5 1.132-1V6.79c0-.579-.316-.737-1.132-.816l-.526-.052c-.105 0-.184-.027-.184-.106v-.605l.026-.053s2.08.053 2.895.053c.71 0 2.737-.053 2.737-.053l.026.053v.579c0 .079-.052.132-.157.132l-.553.052Zm5.759 5.685c.579 0 1 .131 1.395.658l2.92 3.632c.37.42.396.71.396 1.052v.316l.026.027s.947-.027 1.605-.027c.737 0 2.132.027 2.132.027l.08-.027v-.552c0-.08-.106-.132-.185-.158l-.132-.027c-.526-.105-1.158-.263-1.474-.631l-3.974-4.79c-.131-.158-.236-.29-.236-.448 0-.21.158-.5.605-.973l2.263-2.606c.946-1.077 1.655-1.131 2.678-1.21h.007c.131 0 .21-.053.21-.132v-.605l-.079-.027s-1.158.053-1.842.053c-.763 0-2.895-.053-2.895-.053l-.026.027v.605c0 .079.052.105.158.132.526.079.763.315.763.526 0 .5-.816 1.474-1.869 2.632-1.158 1.237-1.658 1.684-2.526 1.684V6.79c0-.526.29-.658 1.105-.816l.29-.052c.105-.027.157-.053.157-.132v-.579l-.026-.053s-1.658.053-2.395.053c-.816 0-2.974-.053-2.974-.053l-.026.053v.605c0 .08.079.106.184.106l.527.052c.842.08 1.131.237 1.131.816v8.764c0 .5-.342.921-1.131 1l-.527.053c-.105 0-.184.052-.184.158v.552l.053.053s2.158-.053 2.895-.053c.79 0 2.447.053 2.447.053l.026-.053v-.552c0-.106-.078-.132-.157-.158l-.29-.053c-.763-.132-1.105-.421-1.105-1v-3.895Zm14.394-5.685c-.816.08-1.106.29-1.106.816v8.764c0 .579.263.921 1.105 1l.553.053c.08 0 .158.052.158.158v.552l-.026.053s-2-.053-2.816-.053c-.737 0-2.79.053-2.79.053l-.053-.053v-.552c0-.106.08-.158.185-.158l.526-.053c.868-.079 1.132-.5 1.132-1V6.79c0-.579-.316-.737-1.132-.816l-.526-.052c-.106 0-.185-.027-.185-.106v-.605l.027-.053s2.079.053 2.895.053c.71 0 2.737-.053 2.737-.053l.026.053v.579c0 .079-.053.132-.158.132l-.552.052Zm5.705.869c0-.685.315-.921 1.579-.921 1.447 0 2.474.5 2.474 2.763 0 2.026-.764 2.974-2.343 2.974-.526 0-1.184-.026-1.71-.237v-4.58Zm-2.027 8.842c0 .5-.263.737-1.079.843l-.553.079c-.105.026-.157.052-.157.158v.552l.026.053s1.974-.053 2.71-.053c.817 0 2.922.053 2.922.053l.026-.053v-.552c0-.106-.079-.132-.184-.158l-.526-.08c-.843-.13-1.158-.262-1.158-.842V12.16c.473.21 1 .263 1.658.263 3.737 0 4.5-2.474 4.5-4.053 0-1.368-.684-3.21-4.421-3.21-.521 0-1.064.014-1.57.028-.44.013-.85.024-1.194.024-.444 0-1.155-.018-1.75-.033-.428-.01-.795-.02-.96-.02l-.053.027v.605c0 .053.026.132.184.132 1.237.079 1.58.105 1.58.92v8.843Zm18.766 1.685s-1.553-.053-2.343-.053H65.32c-.79 0-2.606.053-2.606.053l-.026-.053v-.579c0-.052.026-.131.158-.131l.605-.053c.816-.079 1.053-.605 1.053-1.132V6.737c0-.605-.316-.71-1.053-.763l-.605-.052c-.158-.027-.158-.08-.158-.106v-.605l.026-.053s2.053.053 2.843.053h3.868c.79 0 2.659-.053 2.659-.053l.052.053c.026 1.132.21 2.158.395 3.158l-.658.105c-.29-.973-.79-2.368-2.474-2.368h-2.105c-.5 0-.764.184-.764.631v3.816h1.974c.737 0 .921-.315 1.027-.842l.157-.552c0-.08.053-.132.158-.132h.448c.053 0 .053.026.053.079-.015.16-.033.33-.053.508-.05.468-.105.982-.105 1.44 0 .438.046.83.093 1.222.023.196.047.392.065.594l-.053.052h-.448c-.131 0-.184-.053-.184-.132l-.131-.579c-.106-.526-.343-.815-1.027-.815H66.53v4.026c0 .5.29 1 .764 1h2.5c1.342 0 2.079-.842 2.395-2.21l.658.079-.527 3.026-.052.053Zm1.858-.605v.552l.026.053s2-.053 2.79-.053c.313 0 .642.008 1.046.017.65.016 1.499.036 2.796.036 2.922 0 6.185-1.369 6.185-5.974 0-3.5-2.158-6.238-6.553-6.238-.369 0-1.204.016-1.975.03-.658.012-1.269.023-1.5.023-.473 0-2.789-.053-2.789-.053l-.026.053v.579c0 .079.079.132.184.132l.58.052.06.006c.816.074.992.09.992.757v8.685c0 .816-.263 1.053-1.053 1.132l-.605.053c-.105 0-.158.079-.158.158Zm3.842-1.343V6.737c0-.658.658-.815 1.685-.815 4.421 0 5.026 3.184 5.026 5.921 0 3.685-1.631 4.764-4.526 4.764-2 0-2.185-.448-2.185-1.185Zm15.397-9.448c-.816.08-1.105.29-1.105.816v8.764c0 .579.263.921 1.105 1l.553.053c.079 0 .158.052.158.158v.552l-.027.053s-2-.053-2.816-.053c-.737 0-2.79.053-2.79.053l-.052-.053v-.552c0-.106.079-.158.184-.158l.527-.053c.868-.079 1.131-.5 1.131-1V6.79c0-.579-.316-.737-1.131-.816l-.527-.052c-.105 0-.184-.027-.184-.106v-.605l.026-.053s2.08.053 2.895.053c.71 0 2.737-.053 2.737-.053l.027.053v.579c0 .079-.053.132-.158.132l-.553.052Zm6.495 8.817V6.764c0-.527.316-.658 1.132-.79l.342-.052c.105-.027.184-.053.184-.132v-.579l-.053-.053s-1.842.053-2.579.053c-.79 0-3.053-.053-3.053-.053l-.026.053v.579c0 .079.079.132.158.132l.737.052c.816.053 1.131.21 1.131.79v8.58c0 4.737-.92 5.473-1.737 5.473-.342 0-.5-.184-.684-.447-.237-.316-.526-.658-1.263-.658-.342 0-.948.342-.948.895 0 .869 1.027 1.316 1.58 1.316.605 0 1.684-.026 2.79-.948 1.42-1.131 2.289-2.868 2.289-6.184Z" clip-rule="evenodd"/></svg>
